public/pivotr_light_mode_1920x1080.svg

<svg xmlns="http://www.w3.org/2000/svg" aria-labelledby="logoTitle logoDesc" viewBox="0 0 256 65"><defs><linearGradient id="a" x1="0%" x2="0%" y1="0%" y2="100%"><stop offset="0%" stop-color="#D97757"/><stop offset="100%" stop-color="#D97757"/></linearGradient></defs><path d="M21.401 34.291V56H7.207V-7.018h22.236q23.819 0 23.819 20.083 0 9.493-6.856 15.381-6.811 5.845-18.237 5.845zm0-30.41v19.643h5.581q11.338 0 11.338-9.931 0-9.712-11.338-9.712zM75.015 56H61.128V11h13.887Zm54.536-45-16.743 45h-15.82L81.034 11H95.89l7.822 27.73q1.318 4.702 1.538 7.998h.176q.307-3.12 1.626-7.735L115.049 11Zm26.499 46.099q-11.25 0-17.71-6.285-6.416-6.328-6.416-17.138 0-11.162 6.68-17.447 6.68-6.328 18.061-6.328 11.206 0 17.578 6.328 6.372 6.285 6.372 16.656 0 11.206-6.592 17.71-6.547 6.504-17.973 6.504zm.351-36.563q-4.922 0-7.646 3.384-2.725 3.384-2.725 9.58 0 12.964 10.46 12.964 9.975 0 9.975-13.316 0-12.612-10.064-12.612zm60.425 34.937q-3.076 1.626-9.272 1.626-14.678 0-14.678-15.25V21.24h-7.295V11h7.295V1.288l13.843-3.955V11h10.107v10.24H206.72v18.193q0 7.03 5.58 7.03 2.198 0 4.527-1.274zm37.178-31.949q-2.505-1.362-5.845-1.362-4.526 0-7.075 3.34-2.549 3.296-2.549 9.009V56h-13.887V11h13.887v8.35h.176q3.296-9.141 11.865-9.141 2.197 0 3.428.527z" aria-label="Pıvotr" class="word" style="font-style:normal;font-variant:normal;font-weight:700;font-stretch:normal;font-size:90px;line-height:normal;font-family:&quot;Segoe UI&quot;;fill:#181818" transform="translate(-6 8)"/><path d="m11.376 24-.6-.456-.336-.744.336-1.488.384-1.92.312-1.536.288-1.896.168-.624-.024-.048-.12.024-1.44 1.968-2.184 2.952-1.728 1.824-.408.168-.72-.36.072-.672.408-.576 2.376-3.048 1.44-1.896.936-1.08-.024-.144h-.048l-6.336 4.128L3 18.72l-.504-.456.072-.744.24-.24 1.896-1.32 4.728-2.64.072-.24-.072-.12h-.24l-.792-.048-2.688-.072-2.328-.096-2.28-.12-.576-.12-.528-.72.048-.36.48-.312.696.048 1.512.12 2.28.144 1.656.096 2.448.264h.384l.048-.168-.12-.096-.096-.096L6.96 9.84 4.416 8.16l-1.344-.984-.72-.504-.36-.456-.144-1.008.648-.72.888.072.216.048.888.696 1.896 1.464L8.88 8.616l.36.288.168-.096v-.072l-.168-.264-1.344-2.448-1.44-2.496-.648-1.032-.168-.624a2.53 2.53 0 0 1-.096-.72L6.288.144 6.696 0l1.008.144.408.36.624 1.416.984 2.232 1.56 3.024.456.912.24.816.096.264h.168v-.144l.12-1.728.24-2.088.24-2.688.072-.768.384-.912.744-.48.576.264.48.696-.072.432L14.76 3.6l-.576 2.904-.36 1.968h.216l.24-.264.984-1.296 1.656-2.064.72-.816.864-.912.552-.432h1.032l.744 1.128-.336 1.176-1.056 1.344-.888 1.128-1.272 1.704-.768 1.368.072.096h.168l2.856-.624 1.56-.264 1.824-.312.84.384.096.384-.336.816-1.968.48-2.304.456-3.432.816-.048.024.048.072 1.536.144.672.048h1.632l3.024.216.792.528.456.624-.072.504-1.224.6-1.632-.384-3.84-.912-1.296-.312h-.192v.096l1.104 1.08 1.992 1.8 2.52 2.328.12.576-.312.48-.336-.048-2.208-1.68-.864-.744-1.92-1.608h-.12v.168l.432.648 2.352 3.528.12 1.08-.168.336-.624.216-.648-.12-1.392-1.92-1.416-2.184-1.152-1.944-.12.096-.696 7.248-.312.36z" class="primary" style="fill:url(#a)" transform="matrix(.55 0 0 .55 242 51)"/></svg>

<svg xmlns="http://www.w3.org/2000/svg" viewBox="0 0 210 90" role="img" aria-labelledby="logoTitle logoDesc" width="1920" height="1080">
  <defs>
    <linearGradient id="brandGradient" x1="0%" y1="0%" x2="0%" y2="100%">
      <stop offset="0%" stop-color="#D97757" />
      <stop offset="100%" stop-color="#D97757" />
    </linearGradient>
  </defs>
  
  <title id="logoTitle">Pivotr Wordmark</title>
  <desc id="logoDesc">The word Pivotr written in a dark sans-serif font. The dot on the 'i' and the period at the end are custom symbols colored in Antique Brass.</desc>

  <style>
    .word {
      font: 700 64px Inter, ui-sans-serif, system-ui, -apple-system, "Segoe UI", Roboto, "Helvetica Neue", Arial, "Noto Sans", sans-serif;
      fill: currentColor;
    }
    /* The primary class now uses the gradient defined above */
    .primary { fill: url(#brandGradient); }
  </style>

  <g transform="translate(10,8)">
    <text class="word" x="0" y="64" letter-spacing="-0.5">
      <tspan x="0">P</tspan>
      <tspan x="40">ı</tspan>
      <tspan x="60">votr</tspan>
    </text>
    
    <!-- First symbol, replacing the dot on the 'i' -->
    <path class="primary" transform="translate(43.5 16.5) scale(0.4583)" d="M11.376 24L10.776 23.544L10.44 22.8L10.776 21.312L11.16 19.392L11.472 17.856L11.76 15.96L11.928 15.336L11.904 15.288L11.784 15.312L10.344 17.28L8.16 20.232L6.432 22.056L6.024 22.224L5.304 21.864L5.376 21.192L5.784 20.616L8.16 17.568L9.6 15.672L10.536 14.592L10.512 14.448H10.464L4.128 18.576L3 18.72L2.496 18.264L2.568 17.52L2.808 17.28L4.704 15.96L9.432 13.32L9.504 13.08L9.432 12.96H9.192L8.4 12.912L5.712 12.84L3.384 12.744L1.104 12.624L0.528 12.504L0 11.784L0.048 11.424L0.528 11.112L1.224 11.16L2.736 11.28L5.016 11.424L6.672 11.52L9.12 11.784H9.504L9.552 11.616L9.432 11.52L9.336 11.424L6.96 9.84L4.416 8.16L3.072 7.176L2.352 6.672L1.992 6.216L1.848 5.208L2.496 4.488L3.384 4.56L3.6 4.608L4.488 5.304L6.384 6.768L8.88 8.616L9.24 8.904L9.408 8.808V8.736L9.24 8.472L7.896 6.024L6.456 3.528L5.808 2.496L5.64 1.872C5.576 1.656 5.544 1.416 5.544 1.152L6.288 0.144001L6.696 0L7.704 0.144001L8.112 0.504001L8.736 1.92L9.72 4.152L11.28 7.176L11.736 8.088L11.976 8.904L12.072 9.168H12.24V9.024L12.36 7.296L12.6 5.208L12.84 2.52L12.912 1.752L13.296 0.840001L14.04 0.360001L14.616 0.624001L15.096 1.32L15.024 1.752L14.76 3.6L14.184 6.504L13.824 8.472H14.04L14.28 8.208L15.264 6.912L16.92 4.848L17.64 4.032L18.504 3.12L19.056 2.688H20.088L20.832 3.816L20.496 4.992L19.44 6.336L18.552 7.464L17.28 9.168L16.512 10.536L16.584 10.632H16.752L19.608 10.008L21.168 9.744L22.992 9.432L23.832 9.816L23.928 10.2L23.592 11.016L21.624 11.496L19.32 11.952L15.888 12.768L15.84 12.792L15.888 12.864L17.424 13.008L18.096 13.056H19.728L22.752 13.272L23.544 13.8L24 14.424L23.928 14.928L22.704 15.528L21.072 15.144L17.232 14.232L15.936 13.92H15.744V14.016L16.848 15.096L18.84 16.896L21.36 19.224L21.48 19.8L21.168 20.28L20.832 20.232L18.624 18.552L17.76 17.808L15.84 16.2H15.72V16.368L16.152 17.016L18.504 20.544L18.624 21.624L18.456 21.96L17.832 22.176L17.184 22.056L15.792 20.136L14.376 17.952L13.224 16.008L13.104 16.104L12.408 23.352L12.096 23.712L11.376 24Z"></path>

    <!-- Second symbol, replacing the trailing dot -->
    <path class="primary" transform="translate(179.5 53.5) scale(0.4583)" d="M11.376 24L10.776 23.544L10.44 22.8L10.776 21.312L11.16 19.392L11.472 17.856L11.76 15.96L11.928 15.336L11.904 15.288L11.784 15.312L10.344 17.28L8.16 20.232L6.432 22.056L6.024 22.224L5.304 21.864L5.376 21.192L5.784 20.616L8.16 17.568L9.6 15.672L10.536 14.592L10.512 14.448H10.464L4.128 18.576L3 18.72L2.496 18.264L2.568 17.52L2.808 17.28L4.704 15.96L9.432 13.32L9.504 13.08L9.432 12.96H9.192L8.4 12.912L5.712 12.84L3.384 12.744L1.104 12.624L0.528 12.504L0 11.784L0.048 11.424L0.528 11.112L1.224 11.16L2.736 11.28L5.016 11.424L6.672 11.52L9.12 11.784H9.504L9.552 11.616L9.432 11.52L9.336 11.424L6.96 9.84L4.416 8.16L3.072 7.176L2.352 6.672L1.992 6.216L1.848 5.208L2.496 4.488L3.384 4.56L3.6 4.608L4.488 5.304L6.384 6.768L8.88 8.616L9.24 8.904L9.408 8.808V8.736L9.24 8.472L7.896 6.024L6.456 3.528L5.808 2.496L5.64 1.872C5.576 1.656 5.544 1.416 5.544 1.152L6.288 0.144001L6.696 0L7.704 0.144001L8.112 0.504001L8.736 1.92L9.72 4.152L11.28 7.176L11.736 8.088L11.976 8.904L12.072 9.168H12.24V9.024L12.36 7.296L12.6 5.208L12.84 2.52L12.912 1.752L13.296 0.840001L14.04 0.360001L14.616 0.624001L15.096 1.32L15.024 1.752L14.76 3.6L14.184 6.504L13.824 8.472H14.04L14.28 8.208L15.264 6.912L16.92 4.848L17.64 4.032L18.504 3.12L19.056 2.688H20.088L20.832 3.816L20.496 4.992L19.44 6.336L18.552 7.464L17.28 9.168L16.512 10.536L16.584 10.632H16.752L19.608 10.008L21.168 9.744L22.992 9.432L23.832 9.816L23.928 10.2L23.592 11.016L21.624 11.496L19.32 11.952L15.888 12.768L15.84 12.792L15.888 12.864L17.424 13.008L18.096 13.056H19.728L22.752 13.272L23.544 13.8L24 14.424L23.928 14.928L22.704 15.528L21.072 15.144L17.232 14.232L15.936 13.92H15.744V14.016L16.848 15.096L18.84 16.896L21.36 19.224L21.48 19.8L21.168 20.28L20.832 20.232L18.624 18.552L17.76 17.808L15.84 16.2H15.72V16.368L16.152 17.016L18.504 20.544L18.624 21.624L18.456 21.96L17.832 22.176L17.184 22.056L15.792 20.136L14.376 17.952L13.224 16.008L13.104 16.104L12.408 23.352L12.096 23.712L11.376 24Z"></path>
  </g>
</svg>
